Adwaita++/actions/symbolic/view-zoom-fit-symbolic.svg

<svg xmlns="http://www.w3.org/2000/svg" width="16" height="16" version="1.1">
 <defs>
  <linearGradient id="linearGradient3946">
   <stop id="stop3948" offset="0" style="stop-color:#000000;stop-opacity:0.74698794"/>
   <stop id="stop3950" offset="1" style="stop-color:#000000;stop-opacity:0.02409638"/>
  </linearGradient>
  <linearGradient id="linearGradient3830-9">
   <stop style="stop-color:#000000;stop-opacity:0.74698794" id="stop3832-7" offset="0"/>
   <stop style="stop-color:#000000;stop-opacity:0.02409638" id="stop3834-5" offset="1"/>
  </linearGradient>
  <linearGradient id="linearGradient3984">
   <stop style="stop-color:#f4deba" id="stop3986" offset="0"/>
   <stop style="stop-color:#de9625;stop-opacity:0" id="stop3988" offset="1"/>
  </linearGradient>
 </defs>
 <g id="layer1" transform="translate(-31.97559,-220.36218)">
  <path fill="#444" d="M 1.03125 1 L 1.03125 15 L 15.03125 15 L 15.03125 1 L 1.03125 1 z M 3.03125 3 L 7.03125 3 L 7.03125 5 L 5.03125 5 L 5.03125 7 L 3.03125 7 L 3.03125 3 z M 9.03125 3 L 13.03125 3 L 13.03125 7 L 11.03125 7 L 11.03125 5 L 9.03125 5 L 9.03125 3 z M 3.03125 9 L 5.03125 9 L 5.03125 11 L 7.03125 11 L 7.03125 13 L 3.03125 13 L 3.03125 9 z M 11.03125 9 L 13.03125 9 L 13.03125 13 L 9.03125 13 L 9.03125 11 L 11.03125 11 L 11.03125 9 z" transform="translate(31.97559,220.36218)"/>
 </g>
</svg>

<svg height="16" width="16" xmlns="http://www.w3.org/2000/svg" xmlns:xlink="http://www.w3.org/1999/xlink">
  <defs>
    <linearGradient id="lg1">
      <stop offset="0" stop-opacity=".746988"/>
      <stop offset="1" stop-opacity=".024096"/>
    </linearGradient>
    <linearGradient xlink:href="#lg1"/>
    <linearGradient xlink:href="#lg1"/>
    <linearGradient>
      <stop offset="0" stop-color="#f4deba"/>
      <stop offset="1" stop-color="#de9625" stop-opacity="0"/>
    </linearGradient>
  </defs>
  <path d="m1.03125 1v14h14v-14zm2 2h4v2h-2v2h-2zm6 0h4v4h-2v-2h-2zm-6 6h2v2h2v2h-4zm8 0h2v4h-4v-2h2z" fill="#444"/>
</svg>
